X: 8
M:6/8
L:1/8
K:G
uE|"segno"DGG BGG|AGG GBd|efg dBG|AGG BGE|\
uf|gfg efg|edB def|gfg eag|fdd d2f|\
gfg efg|edB def|1gfe dBA|\


